X: 2604
T: Balquhidder Lasses, The
R: reel
M: 4/4
K: Adorian
(3EFG|:AcB AGE|Ace a2a|gdd dBc|dBA G2G|AcB AGE|Ace aba|gdc BAG|A3A3:|
|:eaa aba|gdd def|gdd dBc|dBA G2G|AcB AGE|Ace aba|gdc BAG|A3A3:|

